icons/sliders.svg

<svg xmlns="http://www.w3.org/2000/svg" width="96" height="96"><path d="M12 8c0-1.1.4-2.1 1.2-2.8.7-.8 1.7-1.2 2.8-1.2 1.1 0 2.1.4 2.8 1.2.8.7 1.2 1.7 1.2 2.8v32c0 1.1-.4 2.1-1.2 2.8-.7.8-1.7 1.2-2.8 1.2-1.1 0-2.1-.4-2.8-1.2-.8-.7-1.2-1.7-1.2-2.8V8zm0 40h8c2.1 0 4.2.8 5.7 2.3 1.5 1.5 2.3 3.6 2.3 5.7v8c0 2.1-.8 4.2-2.3 5.7-1.5 1.5-3.6 2.3-5.7 2.3h-8c-2.1 0-4.2-.8-5.7-2.3C4.8 68.2 4 66.1 4 64v-8c0-2.1.8-4.2 2.3-5.7C7.8 48.8 9.9 48 12 48zm0 8h8v8h-8v-8zm32-32h8c2.1 0 4.2.8 5.7 2.3 1.5 1.5 2.3 3.6 2.3 5.7v8c0 2.1-.8 4.2-2.3 5.7-1.5 1.5-3.6 2.3-5.7 2.3h-8c-2.1 0-4.2-.8-5.7-2.3-1.5-1.5-2.3-3.6-2.3-5.7v-8c0-2.1.8-4.2 2.3-5.7 1.5-1.5 3.6-2.3 5.7-2.3zm0 8h8v8h-8v-8zm32 8h8c2.1 0 4.2.8 5.7 2.3 1.5 1.5 2.3 3.6 2.3 5.7v8c0 2.1-.8 4.2-2.3 5.7-1.5 1.5-3.6 2.3-5.7 2.3h-8c-2.1 0-4.2-.8-5.7-2.3-1.5-1.5-2.3-3.6-2.3-5.7v-8c0-2.1.8-4.2 2.3-5.7 1.5-1.5 3.6-2.3 5.7-2.3zm0 8h8v8h-8v-8zM12 80c0-1.1.4-2.1 1.2-2.8.7-.8 1.7-1.2 2.8-1.2 1.1 0 2.1.4 2.8 1.2.8.7 1.2 1.7 1.2 2.8v8c0 1.1-.4 2.1-1.2 2.8-.7.8-1.7 1.2-2.8 1.2-1.1 0-2.1-.4-2.8-1.2-.8-.7-1.2-1.7-1.2-2.8v-8zM44 8c0-1.1.4-2.1 1.2-2.8.7-.8 1.7-1.2 2.8-1.2 1.1 0 2.1.4 2.8 1.2.8.7 1.2 1.7 1.2 2.8v8c0 1.1-.4 2.1-1.2 2.8-.7.8-1.7 1.2-2.8 1.2-1.1 0-2.1-.4-2.8-1.2-.8-.7-1.2-1.7-1.2-2.8V8zm0 48c0-1.1.4-2.1 1.2-2.8.7-.8 1.7-1.2 2.8-1.2 1.1 0 2.1.4 2.8 1.2.8.7 1.2 1.7 1.2 2.8v32c0 1.1-.4 2.1-1.2 2.8-.7.8-1.7 1.2-2.8 1.2-1.1 0-2.1-.4-2.8-1.2-.8-.7-1.2-1.7-1.2-2.8V56zM76 8c0-1.1.4-2.1 1.2-2.8.7-.8 1.7-1.2 2.8-1.2 1.1 0 2.1.4 2.8 1.2.8.7 1.2 1.7 1.2 2.8v24c0 1.1-.4 2.1-1.2 2.8-.7.8-1.7 1.2-2.8 1.2-1.1 0-2.1-.4-2.8-1.2-.8-.7-1.2-1.7-1.2-2.8V8zm0 64c0-1.1.4-2.1 1.2-2.8.7-.8 1.7-1.2 2.8-1.2 1.1 0 2.1.4 2.8 1.2.8.7 1.2 1.7 1.2 2.8v16c0 1.1-.4 2.1-1.2 2.8-.7.8-1.7 1.2-2.8 1.2-1.1 0-2.1-.4-2.8-1.2-.8-.7-1.2-1.7-1.2-2.8V72z" fill-rule="evenodd" fill="#454545"/></svg>

<?xml version="1.0" standalone="no"?><!-- Generator: Gravit.io --><svg xmlns="http://www.w3.org/2000/svg" xmlns:xlink="http://www.w3.org/1999/xlink" width="96" height="96"><path d=" M 12 8 C 12 6.9 12.4 5.9 13.2 5.2 C 13.9 4.4 14.9 4 16 4 C 17.1 4 18.1 4.4 18.8 5.2 C 19.6 5.9 20 6.9 20 8 L 20 40 C 20 41.1 19.6 42.1 18.8 42.8 C 18.1 43.6 17.1 44 16 44 C 14.9 44 13.9 43.6 13.2 42.8 C 12.4 42.1 12 41.1 12 40 L 12 8 Z  M 12 48 L 20 48 C 22.1 48 24.2 48.8 25.7 50.3 C 27.2 51.8 28 53.9 28 56 L 28 64 C 28 66.1 27.2 68.2 25.7 69.7 C 24.2 71.2 22.1 72 20 72 L 12 72 C 9.9 72 7.8 71.2 6.3 69.7 C 4.8 68.2 4 66.1 4 64 L 4 56 C 4 53.9 4.8 51.8 6.3 50.3 C 7.8 48.8 9.9 48 12 48 Z  M 12 56 L 20 56 L 20 64 L 12 64 L 12 56 Z  M 44 24 L 52 24 C 54.1 24 56.2 24.8 57.7 26.3 C 59.2 27.8 60 29.9 60 32 L 60 40 C 60 42.1 59.2 44.2 57.7 45.7 C 56.2 47.2 54.1 48 52 48 L 44 48 C 41.9 48 39.8 47.2 38.3 45.7 C 36.8 44.2 36 42.1 36 40 L 36 32 C 36 29.9 36.8 27.8 38.3 26.3 C 39.8 24.8 41.9 24 44 24 Z  M 44 32 L 52 32 L 52 40 L 44 40 L 44 32 Z  M 76 40 L 84 40 C 86.1 40 88.2 40.8 89.7 42.3 C 91.2 43.8 92 45.9 92 48 L 92 56 C 92 58.1 91.2 60.2 89.7 61.7 C 88.2 63.2 86.1 64 84 64 L 76 64 C 73.9 64 71.8 63.2 70.3 61.7 C 68.8 60.2 68 58.1 68 56 L 68 48 C 68 45.9 68.8 43.8 70.3 42.3 C 71.8 40.8 73.9 40 76 40 Z  M 76 48 L 84 48 L 84 56 L 76 56 L 76 48 Z  M 12 80 C 12 78.9 12.4 77.9 13.2 77.2 C 13.9 76.4 14.9 76 16 76 C 17.1 76 18.1 76.4 18.8 77.2 C 19.6 77.9 20 78.9 20 80 L 20 88 C 20 89.1 19.6 90.1 18.8 90.8 C 18.1 91.6 17.1 92 16 92 C 14.9 92 13.9 91.6 13.2 90.8 C 12.4 90.1 12 89.1 12 88 L 12 80 Z  M 44 8 C 44 6.9 44.4 5.9 45.2 5.2 C 45.9 4.4 46.9 4 48 4 C 49.1 4 50.1 4.4 50.8 5.2 C 51.6 5.9 52 6.9 52 8 L 52 16 C 52 17.1 51.6 18.1 50.8 18.8 C 50.1 19.6 49.1 20 48 20 C 46.9 20 45.9 19.6 45.2 18.8 C 44.4 18.1 44 17.1 44 16 L 44 8 Z  M 44 56 C 44 54.9 44.4 53.9 45.2 53.2 C 45.9 52.4 46.9 52 48 52 C 49.1 52 50.1 52.4 50.8 53.2 C 51.6 53.9 52 54.9 52 56 L 52 88 C 52 89.1 51.6 90.1 50.8 90.8 C 50.1 91.6 49.1 92 48 92 C 46.9 92 45.9 91.6 45.2 90.8 C 44.4 90.1 44 89.1 44 88 L 44 56 Z  M 76 8 C 76 6.9 76.4 5.9 77.2 5.2 C 77.9 4.4 78.9 4 80 4 C 81.1 4 82.1 4.4 82.8 5.2 C 83.6 5.9 84 6.9 84 8 L 84 32 C 84 33.1 83.6 34.1 82.8 34.8 C 82.1 35.6 81.1 36 80 36 C 78.9 36 77.9 35.6 77.2 34.8 C 76.4 34.1 76 33.1 76 32 L 76 8 Z  M 76 72 C 76 70.9 76.4 69.9 77.2 69.2 C 77.9 68.4 78.9 68 80 68 C 81.1 68 82.1 68.4 82.8 69.2 C 83.6 69.9 84 70.9 84 72 L 84 88 C 84 89.1 83.6 90.1 82.8 90.8 C 82.1 91.6 81.1 92 80 92 C 78.9 92 77.9 91.6 77.2 90.8 C 76.4 90.1 76 89.1 76 88 L 76 72 Z " fill-rule="evenodd" fill="#454545" stroke="none"/><mask id="_mask_S5iLHRdoCzYdK4UTZVx8C8T9ZjnybJTd"><path d=" M 12 8 C 12 6.9 12.4 5.9 13.2 5.2 C 13.9 4.4 14.9 4 16 4 C 17.1 4 18.1 4.4 18.8 5.2 C 19.6 5.9 20 6.9 20 8 L 20 40 C 20 41.1 19.6 42.1 18.8 42.8 C 18.1 43.6 17.1 44 16 44 C 14.9 44 13.9 43.6 13.2 42.8 C 12.4 42.1 12 41.1 12 40 L 12 8 Z  M 12 48 L 20 48 C 22.1 48 24.2 48.8 25.7 50.3 C 27.2 51.8 28 53.9 28 56 L 28 64 C 28 66.1 27.2 68.2 25.7 69.7 C 24.2 71.2 22.1 72 20 72 L 12 72 C 9.9 72 7.8 71.2 6.3 69.7 C 4.8 68.2 4 66.1 4 64 L 4 56 C 4 53.9 4.8 51.8 6.3 50.3 C 7.8 48.8 9.9 48 12 48 Z  M 12 56 L 20 56 L 20 64 L 12 64 L 12 56 Z  M 44 24 L 52 24 C 54.1 24 56.2 24.8 57.7 26.3 C 59.2 27.8 60 29.9 60 32 L 60 40 C 60 42.1 59.2 44.2 57.7 45.7 C 56.2 47.2 54.1 48 52 48 L 44 48 C 41.9 48 39.8 47.2 38.3 45.7 C 36.8 44.2 36 42.1 36 40 L 36 32 C 36 29.9 36.8 27.8 38.3 26.3 C 39.8 24.8 41.9 24 44 24 Z  M 44 32 L 52 32 L 52 40 L 44 40 L 44 32 Z  M 76 40 L 84 40 C 86.1 40 88.2 40.8 89.7 42.3 C 91.2 43.8 92 45.9 92 48 L 92 56 C 92 58.1 91.2 60.2 89.7 61.7 C 88.2 63.2 86.1 64 84 64 L 76 64 C 73.9 64 71.8 63.2 70.3 61.7 C 68.8 60.2 68 58.1 68 56 L 68 48 C 68 45.9 68.8 43.8 70.3 42.3 C 71.8 40.8 73.9 40 76 40 Z  M 76 48 L 84 48 L 84 56 L 76 56 L 76 48 Z  M 12 80 C 12 78.9 12.4 77.9 13.2 77.2 C 13.9 76.4 14.9 76 16 76 C 17.1 76 18.1 76.4 18.8 77.2 C 19.6 77.9 20 78.9 20 80 L 20 88 C 20 89.1 19.6 90.1 18.8 90.8 C 18.1 91.6 17.1 92 16 92 C 14.9 92 13.9 91.6 13.2 90.8 C 12.4 90.1 12 89.1 12 88 L 12 80 Z  M 44 8 C 44 6.9 44.4 5.9 45.2 5.2 C 45.9 4.4 46.9 4 48 4 C 49.1 4 50.1 4.4 50.8 5.2 C 51.6 5.9 52 6.9 52 8 L 52 16 C 52 17.1 51.6 18.1 50.8 18.8 C 50.1 19.6 49.1 20 48 20 C 46.9 20 45.9 19.6 45.2 18.8 C 44.4 18.1 44 17.1 44 16 L 44 8 Z  M 44 56 C 44 54.9 44.4 53.9 45.2 53.2 C 45.9 52.4 46.9 52 48 52 C 49.1 52 50.1 52.4 50.8 53.2 C 51.6 53.9 52 54.9 52 56 L 52 88 C 52 89.1 51.6 90.1 50.8 90.8 C 50.1 91.6 49.1 92 48 92 C 46.9 92 45.9 91.6 45.2 90.8 C 44.4 90.1 44 89.1 44 88 L 44 56 Z  M 76 8 C 76 6.9 76.4 5.9 77.2 5.2 C 77.9 4.4 78.9 4 80 4 C 81.1 4 82.1 4.4 82.8 5.2 C 83.6 5.9 84 6.9 84 8 L 84 32 C 84 33.1 83.6 34.1 82.8 34.8 C 82.1 35.6 81.1 36 80 36 C 78.9 36 77.9 35.6 77.2 34.8 C 76.4 34.1 76 33.1 76 32 L 76 8 Z  M 76 72 C 76 70.9 76.4 69.9 77.2 69.2 C 77.9 68.4 78.9 68 80 68 C 81.1 68 82.1 68.4 82.8 69.2 C 83.6 69.9 84 70.9 84 72 L 84 88 C 84 89.1 83.6 90.1 82.8 90.8 C 82.1 91.6 81.1 92 80 92 C 78.9 92 77.9 91.6 77.2 90.8 C 76.4 90.1 76 89.1 76 88 L 76 72 Z " fill-rule="evenodd" fill="white" stroke="none"/></mask><path d=" M 12 8 C 12 6.9 12.4 5.9 13.2 5.2 C 13.9 4.4 14.9 4 16 4 C 17.1 4 18.1 4.4 18.8 5.2 C 19.6 5.9 20 6.9 20 8 L 20 40 C 20 41.1 19.6 42.1 18.8 42.8 C 18.1 43.6 17.1 44 16 44 C 14.9 44 13.9 43.6 13.2 42.8 C 12.4 42.1 12 41.1 12 40 L 12 8 Z  M 12 48 L 20 48 C 22.1 48 24.2 48.8 25.7 50.3 C 27.2 51.8 28 53.9 28 56 L 28 64 C 28 66.1 27.2 68.2 25.7 69.7 C 24.2 71.2 22.1 72 20 72 L 12 72 C 9.9 72 7.8 71.2 6.3 69.7 C 4.8 68.2 4 66.1 4 64 L 4 56 C 4 53.9 4.8 51.8 6.3 50.3 C 7.8 48.8 9.9 48 12 48 Z  M 12 56 L 20 56 L 20 64 L 12 64 L 12 56 Z  M 44 24 L 52 24 C 54.1 24 56.2 24.8 57.7 26.3 C 59.2 27.8 60 29.9 60 32 L 60 40 C 60 42.1 59.2 44.2 57.7 45.7 C 56.2 47.2 54.1 48 52 48 L 44 48 C 41.9 48 39.8 47.2 38.3 45.7 C 36.8 44.2 36 42.1 36 40 L 36 32 C 36 29.9 36.8 27.8 38.3 26.3 C 39.8 24.8 41.9 24 44 24 Z  M 44 32 L 52 32 L 52 40 L 44 40 L 44 32 Z  M 76 40 L 84 40 C 86.1 40 88.2 40.8 89.7 42.3 C 91.2 43.8 92 45.9 92 48 L 92 56 C 92 58.1 91.2 60.2 89.7 61.7 C 88.2 63.2 86.1 64 84 64 L 76 64 C 73.9 64 71.8 63.2 70.3 61.7 C 68.8 60.2 68 58.1 68 56 L 68 48 C 68 45.9 68.8 43.8 70.3 42.3 C 71.8 40.8 73.9 40 76 40 Z  M 76 48 L 84 48 L 84 56 L 76 56 L 76 48 Z  M 12 80 C 12 78.9 12.4 77.9 13.2 77.2 C 13.9 76.4 14.9 76 16 76 C 17.1 76 18.1 76.4 18.8 77.2 C 19.6 77.9 20 78.9 20 80 L 20 88 C 20 89.1 19.6 90.1 18.8 90.8 C 18.1 91.6 17.1 92 16 92 C 14.9 92 13.9 91.6 13.2 90.8 C 12.4 90.1 12 89.1 12 88 L 12 80 Z  M 44 8 C 44 6.9 44.4 5.9 45.2 5.2 C 45.9 4.4 46.9 4 48 4 C 49.1 4 50.1 4.4 50.8 5.2 C 51.6 5.9 52 6.9 52 8 L 52 16 C 52 17.1 51.6 18.1 50.8 18.8 C 50.1 19.6 49.1 20 48 20 C 46.9 20 45.9 19.6 45.2 18.8 C 44.4 18.1 44 17.1 44 16 L 44 8 Z  M 44 56 C 44 54.9 44.4 53.9 45.2 53.2 C 45.9 52.4 46.9 52 48 52 C 49.1 52 50.1 52.4 50.8 53.2 C 51.6 53.9 52 54.9 52 56 L 52 88 C 52 89.1 51.6 90.1 50.8 90.8 C 50.1 91.6 49.1 92 48 92 C 46.9 92 45.9 91.6 45.2 90.8 C 44.4 90.1 44 89.1 44 88 L 44 56 Z  M 76 8 C 76 6.9 76.4 5.9 77.2 5.2 C 77.9 4.4 78.9 4 80 4 C 81.1 4 82.1 4.4 82.8 5.2 C 83.6 5.9 84 6.9 84 8 L 84 32 C 84 33.1 83.6 34.1 82.8 34.8 C 82.1 35.6 81.1 36 80 36 C 78.9 36 77.9 35.6 77.2 34.8 C 76.4 34.1 76 33.1 76 32 L 76 8 Z  M 76 72 C 76 70.9 76.4 69.9 77.2 69.2 C 77.9 68.4 78.9 68 80 68 C 81.1 68 82.1 68.4 82.8 69.2 C 83.6 69.9 84 70.9 84 72 L 84 88 C 84 89.1 83.6 90.1 82.8 90.8 C 82.1 91.6 81.1 92 80 92 C 78.9 92 77.9 91.6 77.2 90.8 C 76.4 90.1 76 89.1 76 88 L 76 72 Z " fill-rule="evenodd" fill="none" stroke="none" stroke-width="16" mask="url(#_mask_S5iLHRdoCzYdK4UTZVx8C8T9ZjnybJTd)"/></svg>
